X:1
T:Title
%%score { ( 1 4 ) | ( 2 3 ) }
L:1/8
M:4/4
K:A
V:1 treble nm="Grand Piano"
V:4 treble 
V:2 bass 
V:3 bass 
V:1
 z4 z2[Q:1/4=100] [CA]2 | [Ec]3 [Ec] [Ec]2 .[EB]2 | [A,FA]2 [A,DF]2 [A,CE]2 [CEA]2 | %3
 [B,EG]2 [A,EA]2 [EB]2 [Ec]2 |[M:3/4] [EB]6 |[M:1/4] [EB]2 |[M:4/4] [Ec]3 [Ec] [Ec]2 BA | %7
 [Fd]2 [DF]2 [DF]2 [Fd]2 | c2 A2 BA z D |[M:3/4] [CA]6 |[M:1/4] [EA]2 | %11
[M:4/4] [GB]3 [GB] [GB]2 [Ac]d | f3 e e2 c2 | [^DAc]3 [DAc] [DAc]2 [DAB]2 |[M:3/4] [EGB]6 | %15
[M:1/4] B2 |[M:4/4] c2 d2 e3 A | [FB]2 [Fc]2 [Fd]4 | [CEA]2 [B,EG][CEA] [EAc]2 [DEB]2 | %19
[M:3/4] [CEA]6 |] %20
V:2
 z4 z2 [A,,A,]2 | [A,,A,]3 [A,,A,] [A,,A,]2 z A | D,2 D,2 A,,2 A,,2 | E,D, C,2 [B,,G,]2 [A,,A,]2 | %4
[M:3/4] [E,G,]6 |[M:1/4] [E,G,]2 |[M:4/4] [A,,A,]3 [A,,A,] [A,,A,]2 [B,,G,][C,A,] | %7
 [D,A,]2 [D,A,]2 [D,A,]2 [D,A,]2 | [E,A,E]2 [E,CE]2 DC .[E,B,E]2 |[M:3/4] [A,,A,]6 | %10
[M:1/4] [A,C]2 |[M:4/4] z4 z2[K:treble] [A,E]2 | [A,DA]3 [A,CA] [A,CA]2 [A,EA]2 | F,3 F, F,2 B,,2 | %14
[M:3/4] E,6 |[M:1/4] [E,G,E]2 |[M:4/4] [A,E]2 [A,B,E]2 [A,CE]3 [F,CF] | [D,B,]2 [C,^A,]2 [B,,B,]4 | %18
 E,2 E,E, E,2 E,2 |[M:3/4] A,,6 |] %20
V:3
 x8 | z4 z2 [C,A,]2 | x8 | x8 |[M:3/4] x6 |[M:1/4] x2 |[M:4/4] x8 | x8 | z4 [E,E]2 z2 |[M:3/4] x6 | %10
[M:1/4] x2 |[M:4/4] [E,E]3 [E,E] [E,E]2[K:treble] z B | x8 | x8 |[M:3/4] x6 |[M:1/4] x2 | %16
[M:4/4] x8 | x8 | x8 |[M:3/4] x6 |] %20
V:4
 x8 | x8 | x8 | x8 |[M:3/4] x6 |[M:1/4] x2 |[M:4/4] z4 z2 E2 | x8 | z4 z2 G2 |[M:3/4] x6 | %10
[M:1/4] x2 |[M:4/4] x8 | x8 | x8 |[M:3/4] x6 |[M:1/4] x2 |[M:4/4] x8 | x8 | x8 |[M:3/4] x6 |] %20

